X:1
T:Ardeleana
Z:Transkriberad av Bla Bartk 1912
Z:Till abc av Erik Ronstrm 2008
O:Torontal, Rumnien
B:Arrangerad fr violin i 44 duos, nr 44
M:4/4
L:1/16
K:Dm
f^g|a^gfg fed^c dcBd A4|d3e fef^g e2^fg aeae|
a^gfg fed^c dcBd A4|G3A BAB^c A6 =Bc|d^cBd A4 dcBd A4|
d3e fef^g e2^fg aeae|d^cBd A4 dcBd A4|G3A BAB^c A6 z2|]
